X:3349
T:Engelska Långdans nr 1
M:2/4
L:1/16
C: Ola Olsson
O: Skarup, Blekinge
Q: 1/4=80
R: Engelska
K:D
A2 |: dAFA GBAG | FAFA GBAG | FDFD GEGE | FDFD A,2>A2 | 
dAFA GBAG | FAFA GBAG | FAdf fedc |1 d2d2 d2>A2 :|2 d2d2 d2>d2 |
|:ecAc ecge | fdAd fdaf | ecAc ecge | fdcB Adcd |
BGEG BdcB | AFDF AFdc | BdcB AGFE |1 D2D2 D3d :|2 D2D2 D2 |]
(:musicend:)
(:music:)
